packages/assets/static/images/icons/bus.svg

<svg width="24" height="24" viewBox="0 0 24 24" xmlns="http://www.w3.org/2000/svg">
<path d="M17.25 3.00049H6.75C5.95435 3.00049 5.19129 3.31656 4.62868 3.87917C4.06607 4.44178 3.75 5.20484 3.75 6.00049V19.5005C3.75 19.8983 3.90804 20.2798 4.18934 20.5611C4.47064 20.8425 4.85218 21.0005 5.25 21.0005H7.5C7.89782 21.0005 8.27936 20.8425 8.56066 20.5611C8.84196 20.2798 9 19.8983 9 19.5005V18.0005H15V19.5005C15 19.8983 15.158 20.2798 15.4393 20.5611C15.7206 20.8425 16.1022 21.0005 16.5 21.0005H18.75C19.1478 21.0005 19.5294 20.8425 19.8107 20.5611C20.092 20.2798 20.25 19.8983 20.25 19.5005V6.00049C20.25 5.20484 19.9339 4.44178 19.3713 3.87917C18.8087 3.31656 18.0456 3.00049 17.25 3.00049ZM5.25 16.5005V11.2505H18.75V16.5005H5.25ZM5.25 7.50049H18.75V9.75049H5.25V7.50049ZM6.75 4.50049H17.25C17.6478 4.50049 18.0294 4.65852 18.3107 4.93983C18.592 5.22113 18.75 5.60266 18.75 6.00049H5.25C5.25 5.60266 5.40804 5.22113 5.68934 4.93983C5.97064 4.65852 6.35218 4.50049 6.75 4.50049ZM7.5 19.5005H5.25V18.0005H7.5V19.5005ZM16.5 19.5005V18.0005H18.75V19.5005H16.5ZM9.75 13.8755C9.75 14.098 9.68402 14.3155 9.5604 14.5005C9.43679 14.6855 9.26109 14.8297 9.05552 14.9149C8.84995 15 8.62375 15.0223 8.40552 14.9789C8.18729 14.9355 7.98684 14.8283 7.8295 14.671C7.67217 14.5136 7.56502 14.3132 7.52162 14.095C7.47821 13.8767 7.50049 13.6505 7.58564 13.445C7.67078 13.2394 7.81498 13.0637 7.99998 12.9401C8.18499 12.8165 8.4025 12.7505 8.625 12.7505C8.92337 12.7505 9.20952 12.869 9.4205 13.08C9.63147 13.291 9.75 13.5771 9.75 13.8755ZM16.5 13.8755C16.5 14.098 16.434 14.3155 16.3104 14.5005C16.1868 14.6855 16.0111 14.8297 15.8055 14.9149C15.6 15 15.3738 15.0223 15.1555 14.9789C14.9373 14.9355 14.7368 14.8283 14.5795 14.671C14.4222 14.5136 14.315 14.3132 14.2716 14.095C14.2282 13.8767 14.2505 13.6505 14.3356 13.445C14.4208 13.2394 14.565 13.0637 14.75 12.9401C14.935 12.8165 15.1525 12.7505 15.375 12.7505C15.6734 12.7505 15.9595 12.869 16.1705 13.08C16.3815 13.291 16.5 13.5771 16.5 13.8755ZM23.25 7.50049V9.75049C23.25 9.9494 23.171 10.1402 23.0303 10.2808C22.8897 10.4215 22.6989 10.5005 22.5 10.5005C22.3011 10.5005 22.1103 10.4215 21.9697 10.2808C21.829 10.1402 21.75 9.9494 21.75 9.75049V7.50049C21.75 7.30158 21.829 7.11081 21.9697 6.97016C22.1103 6.82951 22.3011 6.75049 22.5 6.75049C22.6989 6.75049 22.8897 6.82951 23.0303 6.97016C23.171 7.11081 23.25 7.30158 23.25 7.50049ZM2.25 7.50049V9.75049C2.25 9.9494 2.17098 10.1402 2.03033 10.2808C1.88968 10.4215 1.69891 10.5005 1.5 10.5005C1.30109 10.5005 1.11032 10.4215 0.96967 10.2808C0.829018 10.1402 0.75 9.9494 0.75 9.75049V7.50049C0.75 7.30158 0.829018 7.11081 0.96967 6.97016C1.11032 6.82951 1.30109 6.75049 1.5 6.75049C1.69891 6.75049 1.88968 6.82951 2.03033 6.97016C2.17098 7.11081 2.25 7.30158 2.25 7.50049Z"/>
</svg>

<svg viewBox="0 0 24 24" xmlns="http://www.w3.org/2000/svg" aria-hidden="true" fill="currentColor"><path d="M17.25 3H6.75a3 3 0 0 0-3 3v13.5a1.5 1.5 0 0 0 1.5 1.5H7.5A1.5 1.5 0 0 0 9 19.5V18h6v1.5a1.5 1.5 0 0 0 1.5 1.5h2.25a1.5 1.5 0 0 0 1.5-1.5V6a3 3 0 0 0-3-3m-12 13.5v-5.25h13.5v5.25zm0-9h13.5v2.25H5.25zm1.5-3h10.5a1.5 1.5 0 0 1 1.5 1.5H5.25a1.5 1.5 0 0 1 1.5-1.5m.75 15H5.25V18H7.5zm9 0V18h2.25v1.5zm-6.75-5.624a1.125 1.125 0 1 1-2.25 0 1.125 1.125 0 0 1 2.25 0m6.75 0a1.125 1.125 0 1 1-2.25 0 1.125 1.125 0 0 1 2.25 0M23.25 7.5v2.25a.75.75 0 1 1-1.5 0V7.5a.75.75 0 1 1 1.5 0m-21 0v2.25a.75.75 0 1 1-1.5 0V7.5a.75.75 0 0 1 1.5 0"/></svg>
